assets/img/components/select-header.svg

<svg width="578" height="145" viewBox="0 0 578 145" fill="none" xmlns="http://www.w3.org/2000/svg">
<path d="M505.5 145C545.541 145 578 112.541 578 72.5C578 32.4594 545.541 0 505.5 0C465.459 0 433 32.4594 433 72.5C433 112.541 465.459 145 505.5 145Z" fill="#286AD8"/>
<path d="M183.424 0C161.651 0 144 17.8525 144 39.8751V145H434V0H183.424Z" fill="#286AD8"/>
<path d="M39.875 145H145C145 64.9187 80.0813 0 0 0V105.125C0 127.147 17.8526 145 39.875 145Z" fill="#286AD8"/>
<g style="mix-blend-mode:multiply">
<mask id="mask0_621_1421" style="mask-type:alpha" maskUnits="userSpaceOnUse" x="144" y="0" width="290" height="145">
<g style="mix-blend-mode:multiply">
<path d="M183.424 0C161.651 0 144 17.8525 144 39.8751V145H434V0H183.424Z" fill="#286AD8"/>
</g>
</mask>
<g mask="url(#mask0_621_1421)">
<g style="mix-blend-mode:multiply" opacity="0.88">
<path d="M240.783 92.8312H349.141C350.345 92.8312 351.407 93.3933 352.112 94.2556L427.569 169.477C428.435 170.18 429 171.237 429 172.436V184.695C429 186.811 427.277 188.526 425.152 188.526H255.859C254.655 188.526 253.593 187.964 252.888 187.102L177.43 111.88C176.565 111.178 176 110.121 176 108.922V96.6622C176 94.5464 177.723 92.8312 179.848 92.8312H183.552C183.537 92.8118 183.519 92.7949 183.505 92.775L178.619 86.5006C178.027 86.0843 177.539 85.0744 177.539 84.2986C177.539 83.0291 178.573 82 179.848 82H230.636C231.415 82 232.1 82.3869 232.519 82.9755L240.783 92.8312Z" fill="url(#paint0_linear_621_1421)" fill-opacity="0.59"/>
</g>
</g>
</g>
<path d="M348.908 92.7896H179.842C177.72 92.7896 176 94.5509 176 96.7236V109.313C176 111.485 177.72 113.247 179.842 113.247H348.908C351.03 113.247 352.75 111.485 352.75 109.313V96.7236C352.75 94.5509 351.03 92.7896 348.908 92.7896Z" fill="#5187DF"/>
<path d="M177.5 84.4549C177.5 83.099 178.538 82 179.819 82H230.825C232.106 82 233.144 83.099 233.144 84.4549C233.144 85.8107 232.106 86.9097 230.825 86.9097H179.819C178.538 86.9097 177.5 85.8107 177.5 84.4549Z" fill="#5187DF"/>
<path d="M342.855 102.357L338.734 106.577C338.555 106.761 338.346 106.852 338.107 106.852C337.868 106.852 337.659 106.761 337.48 106.577L333.358 102.357C333.194 102.189 333.111 101.975 333.111 101.715C333.111 101.455 333.194 101.241 333.358 101.073C333.522 100.905 333.731 100.821 333.985 100.821C334.239 100.821 334.448 100.905 334.612 101.073L338.107 104.651L341.601 101.073C341.765 100.905 341.974 100.821 342.228 100.821C342.482 100.821 342.691 100.905 342.855 101.073C343.019 101.241 343.102 101.455 343.102 101.715C343.102 101.975 343.019 102.189 342.855 102.357Z" fill="#286AD8"/>
<defs>
<linearGradient id="paint0_linear_621_1421" x1="189.082" y1="34.9819" x2="361.609" y2="180.144" gradientUnits="userSpaceOnUse">
<stop stop-color="#7AA5E7"/>
<stop offset="1" stop-color="#003BA1"/>
</linearGradient>
</defs>
</svg>

<svg xmlns="http://www.w3.org/2000/svg" width="578" height="145" fill="none" viewBox="0 0 578 145"><path fill="#286ad8" d="M505.5 145c40.041 0 72.5-32.459 72.5-72.5S545.541 0 505.5 0 433 32.46 433 72.5s32.459 72.5 72.5 72.5"/><path fill="#286ad8" d="M183.424 0C161.651 0 144 17.853 144 39.875V145h290V0z"/><path fill="#286ad8" d="M39.875 145H145C145 64.919 80.081 0 0 0v105.125C0 127.147 17.853 145 39.875 145"/><g style="mix-blend-mode:multiply"><mask id="a" width="290" height="145" x="144" y="0" maskUnits="userSpaceOnUse" style="mask-type:alpha"><path fill="#286ad8" d="M183.424 0C161.651 0 144 17.853 144 39.875V145h290V0z" style="mix-blend-mode:multiply"/></mask><g mask="url(#a)"><path fill="url(#b)" fill-opacity=".59" d="M240.783 92.831h108.358c1.204 0 2.266.562 2.971 1.425l75.457 75.221c.866.703 1.431 1.76 1.431 2.959v12.259a3.84 3.84 0 0 1-3.848 3.831H255.859a3.83 3.83 0 0 1-2.971-1.424L177.43 111.88c-.865-.702-1.43-1.759-1.43-2.958v-12.26a3.84 3.84 0 0 1 3.848-3.83h3.704q-.024-.029-.047-.057l-4.886-6.274c-.592-.417-1.08-1.427-1.08-2.202A2.304 2.304 0 0 1 179.848 82h50.788c.779 0 1.464.387 1.883.975z" opacity=".88" style="mix-blend-mode:multiply"/></g></g><path fill="#5187df" d="M348.908 92.79H179.842c-2.122 0-3.842 1.76-3.842 3.934v12.589c0 2.172 1.72 3.934 3.842 3.934h169.066c2.122 0 3.842-1.762 3.842-3.934v-12.59c0-2.172-1.72-3.933-3.842-3.933M177.5 84.455c0-1.356 1.038-2.455 2.319-2.455h51.006c1.281 0 2.319 1.099 2.319 2.455s-1.038 2.455-2.319 2.455h-51.006c-1.281 0-2.319-1.1-2.319-2.455"/><path fill="#286ad8" d="m342.855 102.357-4.121 4.22a.85.85 0 0 1-.627.275.85.85 0 0 1-.627-.275l-4.122-4.22a.88.88 0 0 1-.247-.642q0-.39.247-.642a.84.84 0 0 1 .627-.252q.381 0 .627.252l3.495 3.578 3.494-3.578a.84.84 0 0 1 .627-.252q.381 0 .627.252a.88.88 0 0 1 .247.642q0 .39-.247.642"/><defs><linearGradient id="b" x1="189.082" x2="361.609" y1="34.982" y2="180.144" gradientUnits="userSpaceOnUse"><stop stop-color="#7aa5e7"/><stop offset="1" stop-color="#003ba1"/></linearGradient></defs></svg>
